X:17092
T: Was there e'er such a lassie as I?
R: jig
B: RSCDS 17-9(II)
Z: 1997 by John Chambers <jc:trillian.mit.edu>
N: "Old Song"
M: 6/8
L: 1/8
%--------------------
K: G
|: D \
| "G"G/A/BB BAG | Bdd d2B | "Am"ceA "G"BdG | "D7"cEF "G"G2 :: B/c/ | "G"dBB "/F"dBB | "Em"GEE E2F/G/ |
| "D"AFF "(A7)"dAA | "D"FDD D2B/c/ | "G"ded "/F"dgd | "Em"BGG G2c/d/ | "Am"efe "A7"eag | "D"fdd d2B/c/ || "G"dBB "/F"dBB |
| "Em"GEE E2F/G/ | "D"AFF "(A7)"dAA | "D"FDD D2B | "Am"cec "G"BdB | "A7"ABG "D7"FED | "Am"c/d/eA "G"B/c/dG | "D7"cEF "G"G2 :|
